X: 24048
T: Lone Bush, The
R: hornpipe
M: 4/4
K: Gmajor
(3DEF|G>AB>d (3(cBc) d>B|{/B}G>AB>d c2 B>c|d>g (3(fga) {/b}g>fd>B-|(3Bcd ((3Bcd) c>AF>A|
G>AB>d (3(cBc) d>B|{/B}G>AB>d c2 B>c|d>!slide!gf>d c>AF>A|!slide!G2 {/B}G>F G2 (3DEF|
G>AB>d (3(cBc) d>B|{/B}G>AB>d c2 B>c|d>g (3fga {/b}g>fd>(c|B)>GD>E =F>Dc>d|
G>AB>d (3(cBc) d>B|{/B}G>AB>d c2 B>c|d>gf>d c>AF>A|G2 {/B}G>F G2 ((3B^cd)|
{/b}g>d ((3B^cd) =f>cA>c|g>d ((3B^cd) =f2 ((3de^f)|g>d ((3fga) {/b}g>fd>e|(3fga {/b}g>e {/a}f>dc>A|
G>AB>d (3(cBc) d>B|G>AB>d c2 B>c|d>g{/a}f>d c>AF>A|G2 {/B}G>F G2 ((3B^cd)
{/b}g>d (3B^cd =f>cA>c|g>d (3B^cd =f2 ((3de^f)|g>d ((3fga) {/b}g>fd>e|(3fga g>e {/a}f>dc>A|
G>AB>d (3(cBc) d>B|{/B}G>AB>d c2 B>c|d>g{/a}f>d c>A ((3FGA)|G2 ((3AGF) G2||

